X: 1
T: Trip To London, The
M: 4/4
L: 1/8
R: reel
K: Gmaj
DEFD GFDC|B,G,B,C DEFD|~G3B dBGB|A=FDE FDCF|
DEFD GFDC|B,G,B,C DEFD|~G3B AGFA|1 DGGF ~G3F:|2 DGGF G2Bd||
|:gBdB GBdg|bgag egfa|gBBA (3BcB AB|GBdB ABcd|
gB~B2 GBdg|bgag egfa|gd~d2 ^cdBG|1 FGAF GABd:|2 FGAF G3F||
